Komodo/mimetypes/scalable/text-x-changelog.svg

<?xml version="1.0" encoding="UTF-8" standalone="no"?>
<!-- Created with Inkscape (http://www.inkscape.org/) -->

<svg
   xmlns:dc="http://purl.org/dc/elements/1.1/"
   xmlns:cc="http://creativecommons.org/ns#"
   xmlns:rdf="http://www.w3.org/1999/02/22-rdf-syntax-ns#"
   xmlns:svg="http://www.w3.org/2000/svg"
   xmlns="http://www.w3.org/2000/svg"
   xmlns:xlink="http://www.w3.org/1999/xlink"
   xmlns:sodipodi="http://sodipodi.sourceforge.net/DTD/sodipodi-0.dtd"
   xmlns:inkscape="http://www.inkscape.org/namespaces/inkscape"
   width="96"
   height="96"
   id="svg11037"
   version="1.1"
   inkscape:version="0.48.3.1 r9886"
   sodipodi:docname="text-x-changelog.svg">
  <defs
     id="defs11039">
    <linearGradient
       y2="1046.1001"
       x2="47.999954"
       y1="962.62189"
       x1="47.999954"
       gradientTransform="matrix(1.15,0,0,1.15,-7.1999462,-150.65291)"
       gradientUnits="userSpaceOnUse"
       id="linearGradient3886"
       xlink:href="#linearGradient3795"
       inkscape:collect="always" />
    <linearGradient
       id="linearGradient3795">
      <stop
         style="stop-color:#13a6fd;stop-opacity:1;"
         offset="0"
         id="stop3797" />
      <stop
         style="stop-color:#2975b6;stop-opacity:1;"
         offset="1"
         id="stop3799" />
    </linearGradient>
    <linearGradient
       y2="1046.1001"
       x2="47.999954"
       y1="962.62189"
       x1="47.999954"
       gradientTransform="matrix(1.15,0,0,1.15,-7.1999462,-150.65292)"
       gradientUnits="userSpaceOnUse"
       id="linearGradient11642"
       xlink:href="#linearGradient3700"
       inkscape:collect="always" />
    <linearGradient
       x1="48"
       y1="90"
       x2="48"
       y2="5.9877172"
       id="linearGradient3706"
       xlink:href="#linearGradient3700"
       gradientUnits="userSpaceOnUse" />
    <linearGradient
       id="linearGradient3700">
      <stop
         id="stop3702"
         style="stop-color:#ebebeb;stop-opacity:1"
         offset="0" />
      <stop
         id="stop3704"
         style="stop-color:#fafafa;stop-opacity:1"
         offset="1" />
    </linearGradient>
    <linearGradient
       gradientTransform="translate(-107.85154,950.36215)"
       y2="5.9877172"
       x2="48"
       y1="90"
       x1="48"
       gradientUnits="userSpaceOnUse"
       id="linearGradient3062"
       xlink:href="#linearGradient3700"
       inkscape:collect="always" />
    <clipPath
       id="clipPath4049">
      <path
         d="m -88,6 c -3.324,0 -6,2.676 -6,6 l 0,72 c 0,3.324 2.676,6 6,6 l 72,0 c 3.324,0 6,-2.676 6,-6 l 0,-72 c 0,-3.324 -2.676,-6 -6,-6 l -72,0 z m 55.9375,22 8,8 L -56,67.9375 -75.9375,47.875 -68,39.9375 l 12,12 L -32.0625,28 z"
         inkscape:connector-curvature="0"
         id="path4051"
         style="fill:#ff00ff;fill-opacity:1;fill-rule:nonzero;stroke:none" />
    </clipPath>
    <filter
       x="-0.12743413"
       y="-0.16551641"
       width="1.2548683"
       height="1.3310328"
       color-interpolation-filters="sRGB"
       id="filter4053">
      <feGaussianBlur
         id="feGaussianBlur4055"
         stdDeviation="2.7540384" />
    </filter>
    <linearGradient
       x1="49"
       y1="68"
       x2="49"
       y2="28"
       id="linearGradient3985"
       xlink:href="#linearGradient3697"
       gradientUnits="userSpaceOnUse" />
    <linearGradient
       id="linearGradient3697">
      <stop
         id="stop3699"
         style="stop-color:#bababa;stop-opacity:1"
         offset="0" />
      <stop
         id="stop3701"
         style="stop-color:#d2d2d2;stop-opacity:1"
         offset="1" />
    </linearGradient>
    <clipPath
       clipPathUnits="userSpaceOnUse"
       id="clipPath3009">
      <path
         id="path3011"
         d="m -2,956.36218 -96,0 0,33.5624 96,25.68742 0,-59.24982 z"
         style="opacity:0.15;fill:#ffffff;fill-opacity:1;stroke:none"
         inkscape:connector-curvature="0" />
    </clipPath>
  </defs>
  <sodipodi:namedview
     id="base"
     pagecolor="#ffffff"
     bordercolor="#666666"
     borderopacity="1.0"
     inkscape:pageopacity="0.0"
     inkscape:pageshadow="2"
     inkscape:zoom="3.959798"
     inkscape:cx="33.538031"
     inkscape:cy="59.964634"
     inkscape:document-units="px"
     inkscape:current-layer="layer1"
     showgrid="false"
     inkscape:window-width="1280"
     inkscape:window-height="750"
     inkscape:window-x="0"
     inkscape:window-y="22"
     inkscape:window-maximized="1"
     showguides="true"
     inkscape:guide-bbox="true">
    <sodipodi:guide
       orientation="0,1"
       position="-24.748737,0"
       id="guide11064" />
    <sodipodi:guide
       orientation="0,1"
       position="-23.233509,96"
       id="guide11066" />
    <sodipodi:guide
       orientation="1,0"
       position="0,54.800776"
       id="guide11068" />
    <sodipodi:guide
       orientation="1,0"
       position="96,51.012704"
       id="guide11070" />
    <sodipodi:guide
       orientation="0,1"
       position="-18.94036,48"
       id="guide11072" />
    <sodipodi:guide
       orientation="1,0"
       position="48,79.296975"
       id="guide11074" />
    <sodipodi:guide
       orientation="1,0"
       position="2,75.508903"
       id="guide11076" />
    <sodipodi:guide
       orientation="0,1"
       position="-77.27667,2"
       id="guide11078" />
    <sodipodi:guide
       orientation="1,0"
       position="94,77.781746"
       id="guide11080" />
    <sodipodi:guide
       orientation="0,1"
       position="-65.912454,94"
       id="guide11082" />
  </sodipodi:namedview>
  <metadata
     id="metadata11042">
    <rdf:RDF>
      <cc:Work
         rdf:about="">
        <dc:format>image/svg+xml</dc:format>
        <dc:type
           rdf:resource="http://purl.org/dc/dcmitype/StillImage" />
        <dc:title />
      </cc:Work>
    </rdf:RDF>
  </metadata>
  <g
     inkscape:label="Layer 1"
     inkscape:groupmode="layer"
     id="layer1"
     transform="translate(0,-956.36218)">
    <rect
       x="2"
       y="958.36218"
       width="92"
       height="92"
       style="fill:url(#linearGradient11642);fill-opacity:1.0"
       id="rect3867"
       rx="25"
       ry="25" />
    <g
       transform="translate(0,956.36218)"
       style="display:inline"
       id="g3081">
      <path
         style="opacity:0.6;fill:none;stroke:#ffffff;stroke-width:2;stroke-miterlimit:4;stroke-dasharray:none;filter:url(#filter4053)"
         id="path4040"
         clip-path="url(#clipPath4049)"
         transform="translate(100,0)"
         inkscape:connector-curvature="0"
         d="M -75.93376,47.86752 -68,39.93376 l 12,12 L -32.06624,28 l 8,8 L -56,67.93376 -75.93376,47.86752 z" />
      <path
         style="fill:url(#linearGradient3985);fill-opacity:1;stroke:none"
         id="path3977"
         inkscape:connector-curvature="0"
         d="M 24.06624,47.86752 32,39.93376 l 12,12 L 67.93376,28 l 8,8 L 44,67.93376 24.06624,47.86752 z" />
      <path
         style="opacity:0.2;fill:#000000;fill-opacity:1;stroke:none"
         id="path4022"
         inkscape:connector-curvature="0"
         d="M 67.9375,28 44,51.9375 l -12,-12 -7.9375,7.9375 0.5,0.5 7.4375,-7.4375 12,12 L 67.9375,29 l 7.5,7.5 0.5,-0.5 -8,-8 z" />
      <path
         style="fill:#ffffff;fill-opacity:1;stroke:none"
         id="path4031"
         inkscape:connector-curvature="0"
         d="M 75.4375,36.5 44,67.9375 24.5625,48.375 l -0.5,0.5 L 44,68.9375 75.9375,37 l -0.5,-0.5 z" />
    </g>
    <rect
       ry="25"
       rx="25"
       id="rect3003"
       style="opacity:0.15;fill:#ffffff;fill-opacity:1"
       height="92"
       width="92"
       y="958.36218"
       x="-96"
       clip-path="url(#clipPath3009)"
       transform="translate(98,3.8281269e-7)" />
  </g>
</svg>

<?xml version="1.0" encoding="UTF-8" standalone="no"?>
<!-- Created with Inkscape (http://www.inkscape.org/) -->
<svg id="svg11037" xmlns:rdf="http://www.w3.org/1999/02/22-rdf-syntax-ns#" xmlns="http://www.w3.org/2000/svg" height="96" width="96" version="1.1" xmlns:cc="http://creativecommons.org/ns#" xmlns:xlink="http://www.w3.org/1999/xlink" xmlns:dc="http://purl.org/dc/elements/1.1/">
 <defs id="defs11039">
  <linearGradient id="linearGradient11642" y2="1046.1" gradientUnits="userSpaceOnUse" y1="962.62" gradientTransform="matrix(1.15 0 0 1.15 -7.1999 -150.65)" x2="48" x1="48">
   <stop id="stop3702" style="stop-color:#ebebeb" offset="0"/>
   <stop id="stop3704" style="stop-color:#fafafa" offset="1"/>
  </linearGradient>
  <clipPath id="clipPath4049">
   <path id="path4051" style="fill:#f0f" d="m-88 6c-3.324 0-6 2.676-6 6v72c0 3.324 2.676 6 6 6h72c3.324 0 6-2.676 6-6v-72c0-3.324-2.676-6-6-6h-72zm55.938 22 8 8l-31.938 31.938-19.938-20.063 7.938-7.937 12 12 23.938-23.938z"/>
  </clipPath>
  <filter id="filter4053" height="1.331" width="1.2549" color-interpolation-filters="sRGB" y="-.16552" x="-.12743">
   <feGaussianBlur id="feGaussianBlur4055" stdDeviation="2.7540384"/>
  </filter>
  <linearGradient id="linearGradient3985" y2="28" gradientUnits="userSpaceOnUse" x2="49" y1="68" x1="49">
   <stop id="stop3699" style="stop-color:#bababa" offset="0"/>
   <stop id="stop3701" style="stop-color:#d2d2d2" offset="1"/>
  </linearGradient>
  <clipPath id="clipPath3009" clipPathUnits="userSpaceOnUse">
   <path id="path3011" style="opacity:.15;fill:#fff" d="m-2 956.36h-96v33.562l96 25.687v-59.25z"/>
  </clipPath>
 </defs>
 <metadata id="metadata11042">
  <rdf:RDF>
   <cc:Work rdf:about="">
    <dc:format>image/svg+xml</dc:format>
    <dc:type rdf:resource="http://purl.org/dc/dcmitype/StillImage"/>
    <dc:title/>
   </cc:Work>
  </rdf:RDF>
 </metadata>
 <g id="layer1" transform="translate(0 -956.36)">
  <rect id="rect3867" style="fill:url(#linearGradient11642)" rx="25" ry="25" height="92" width="92" y="958.36" x="2"/>
  <g id="g3081" transform="translate(0 956.36)">
   <path id="path4040" style="opacity:.6;filter:url(#filter4053);stroke:#fff;stroke-width:2;fill:none" d="m-75.934 47.868 7.934-7.934l12 12 23.934-23.934 8 8-31.934 31.934-19.934-20.066z" clip-path="url(#clipPath4049)" transform="translate(100)"/>
   <path id="path3977" d="m24.066 47.868 7.934-7.934l12 12 23.934-23.934 8 8-31.934 31.934-19.934-20.066z" style="fill:url(#linearGradient3985)"/>
   <path id="path4022" d="m67.938 28-23.938 23.938l-12-12-7.9375 7.9375 0.5 0.5 7.4375-7.4375 12 12 23.938-23.938 7.5 7.5 0.5-0.5-8-8z" style="opacity:.2"/>
   <path id="path4031" d="m75.438 36.5-31.438 31.438-19.438-19.563l-0.5 0.5 19.938 20.063 31.938-31.938-0.5-0.5z" style="fill:#fff"/>
  </g>
  <rect id="rect3003" style="opacity:.15;fill:#fff" transform="translate(98 3.8281e-7)" clip-path="url(#clipPath3009)" rx="25" ry="25" height="92" width="92" y="958.36" x="-96"/>
 </g>
</svg>
